X: 606
T: Eglantine - Valse/Walzer/Waltz
R: Waltz
C: Cliff Stapleton
M: 3/4
Q: 150
L: 1/4
K: D
A/F/|"D"DFA|d>cd/e/|fe/f/e/d/|A2F|"G"GBd|"A"Ace|1"D"d>cd/e/|
fd:|2"D"d>ed/c/|d2||:d/e/|"D"fe/f/e/d/|"Em"gf/g/f/e/|"D/F#"fe/f/e/d/|A2F|"G"GBd|
"A"Ace|1"D"d>cd/e/|fd:|2"D"d>ed/c/|d2|]

%%newpage
%%textfont * 14
%%begintext justify
%%32 Bar Waltzes
%%endtext
